X:288
T:Reel 288
M:4/4
K:Gmaj
L:1/8
dc|BGGB AGGE|DEFG ABcA|BcBA  (3Bcd ef|gedB c2dc|BGBG DGBd|cBAG FGAc|BGBc dgfd|ecBc A2G2|dggf g2bg|agab c'abc'|dggf g2fg|afdf g2de|dggf gbag|fdef gedc|BdAB cABG|ABcA BGG2|
